X:4858
T:Eppie Adair
S:Digital Tradition, epieadir
N:Author: Robert Burns
N:Tune: My Eppie
O:Scots
Z:dt:epieadir
M:3/4
L:1/8
Q:1/4=100
W:By love and by beauty,
W:By law and by duty,
W:I swear to be true to
W:My Eppie Adair!
W:
W:  Chorus:
W:  An O my Eppie, my jewel, my Eppie!
W:  Wha wadna be happy wi Eppie Adair
W:
W:A' pleasure exile me,
W:Dishonor defile me,
W:If e'er I beguile thee,
W:My Eppie Adair!
K:G
F3/2-A/ |B2 A2 B2|E2 F2 A2|B-A G-F A2|D2 F2 B2|\
B2 A2 B2|B2 e2 d2|B3A G-F|E4 B2|
e3/2-f/- g2 f2|e2 B2 ^c2|d3/2-e/ f2 e2|d2 A2 B2|\
e3/2-f/ g2 f2|e3/2-d/ c2 A2|B2 e2 ^d2|e4 B2|
e3/2-f/ g2 f2|e2 B2 ^c2|d3/2-e/ f2 e2|d-B A-F E-D|\
G2 G2 A2|B2 e2 d2|B3-A GF|E6||
